X:241
T:Serra ur Matthias Silvius Svenonis notbok 
T:(SmM I:241)
R:Serra
R:Polska
O:Kalmar, Småland
S:Matthias Silvius Svenonis
B:Småländsk Musiktradition
N:Småländsk Musiktradition, I:241
Z:Till abc Jonas Brunskog
M:3/4
L:1/8
K:Am
AB A2 E2|AB A2 E2|E^F GE AG|^F>E E4:|
|:ED CD E^F|G2 G4|CB, A,B, CD|E2 E2 DC|B,C B,3 A,|A,2 A,4:|

